docs/assets/images/iphone_topline.svg

<svg width="224" height="30" viewBox="0 0 224 30" fill="none" xmlns="http://www.w3.org/2000/svg">
<path d="M14.5768 18.1367C16.0104 18.1367 16.862 17.0156 16.862 15.1172C16.862 14.4023 16.7253 13.8008 16.4636 13.3359C16.0847 12.6133 15.4323 12.2227 14.6081 12.2227C13.3815 12.2227 12.5143 13.0469 12.5143 14.2031C12.5143 15.2891 13.2956 16.0781 14.3698 16.0781C15.03 16.0781 15.5651 15.7695 15.8307 15.2344H15.8425C15.8425 15.2344 15.8581 15.2344 15.862 15.2344C15.8698 15.2344 15.8972 15.2344 15.8972 15.2344C15.8972 16.5234 15.4089 17.293 14.5847 17.293C14.1003 17.293 13.7253 17.0273 13.5964 16.6016H12.5925C12.7604 17.5273 13.5456 18.1367 14.5768 18.1367ZM14.612 15.2773C13.9636 15.2773 13.5026 14.8164 13.5026 14.1719C13.5026 13.543 13.987 13.0625 14.6159 13.0625C15.2448 13.0625 15.7292 13.5508 15.7292 14.1875C15.7292 14.8164 15.2565 15.2773 14.612 15.2773ZM18.2235 17.4023C18.5946 17.4023 18.8485 17.1367 18.8485 16.7852C18.8485 16.4297 18.5946 16.168 18.2235 16.168C17.8563 16.168 17.5985 16.4297 17.5985 16.7852C17.5985 17.1367 17.8563 17.4023 18.2235 17.4023ZM18.2235 14.4727C18.5946 14.4727 18.8485 14.2109 18.8485 13.8594C18.8485 13.5039 18.5946 13.2422 18.2235 13.2422C17.8563 13.2422 17.5985 13.5039 17.5985 13.8594C17.5985 14.2109 17.8563 14.4727 18.2235 14.4727ZM22.3351 18H23.2999V16.9492H24.0616V16.0977H23.2999V12.3633H21.878C20.8819 13.8633 20.089 15.1172 19.5812 16.0508V16.9492H22.3351V18ZM20.5148 16.0625C21.171 14.9062 21.7569 13.9805 22.296 13.1836H22.3507V16.1211H20.5148V16.0625ZM25.9622 18H26.97V12.3633H25.9661L24.4935 13.3945V14.3633L25.8958 13.3789H25.9622V18Z" fill="#131523"/>
<path opacity="0.35" d="M198.194 11.25H207.92C208.887 11.25 209.67 12.0335 209.67 13V16.0702C209.67 17.0367 208.887 17.8202 207.92 17.8202H198.194C197.227 17.8202 196.444 17.0367 196.444 16.0702V13C196.444 12.0335 197.227 11.25 198.194 11.25Z" fill="#131523" stroke="#131420" stroke-width="0.5"/>
<path opacity="0.4" d="M210.47 13.7193V16.0146C210.936 15.8202 211.239 15.368 211.239 14.8669C211.239 14.3659 210.936 13.9137 210.47 13.7193" fill="#131523"/>
<path d="M197.292 13.0877C197.292 12.5354 197.74 12.0877 198.292 12.0877H207.822C208.375 12.0877 208.822 12.5354 208.822 13.0877V15.9824C208.822 16.5347 208.375 16.9824 207.822 16.9824H198.292C197.74 16.9824 197.292 16.5347 197.292 15.9824V13.0877Z" fill="#131523"/>
<path fill-rule="evenodd" clip-rule="evenodd" d="M187.684 12.9511C189.038 12.9512 190.341 13.4773 191.322 14.4208C191.396 14.4936 191.514 14.4927 191.587 14.4187L192.294 13.6978C192.33 13.6603 192.351 13.6094 192.351 13.5566C192.35 13.5037 192.329 13.4531 192.292 13.416C189.716 10.9198 185.652 10.9198 183.075 13.416C183.038 13.4531 183.017 13.5036 183.017 13.5565C183.016 13.6094 183.037 13.6602 183.074 13.6978L183.78 14.4187C183.853 14.4928 183.971 14.4937 184.045 14.4208C185.027 13.4772 186.329 12.9511 187.684 12.9511ZM187.703 15.1727C188.447 15.1726 189.165 15.4523 189.717 15.9573C189.791 16.0289 189.909 16.0274 189.981 15.9538L190.687 15.2328C190.724 15.195 190.745 15.1437 190.744 15.0904C190.744 15.0371 190.722 14.9862 190.684 14.9492C189.005 13.3695 186.404 13.3695 184.724 14.9492C184.686 14.9862 184.664 15.0371 184.664 15.0904C184.663 15.1438 184.684 15.1951 184.721 15.2328L185.427 15.9538C185.499 16.0274 185.617 16.0289 185.692 15.9573C186.243 15.4526 186.96 15.173 187.703 15.1727ZM189.138 16.625C189.14 16.6784 189.119 16.73 189.081 16.7674L187.86 18.013C187.824 18.0496 187.776 18.0702 187.725 18.0702C187.674 18.0702 187.625 18.0496 187.589 18.013L186.368 16.7674C186.331 16.7299 186.31 16.6784 186.311 16.6249C186.312 16.5715 186.335 16.5208 186.374 16.485C187.154 15.8183 188.296 15.8183 189.075 16.485C189.115 16.5209 189.137 16.5715 189.138 16.625Z" fill="#131523"/>
<path d="M174.231 13.1754C174.231 12.8751 174.477 12.6316 174.78 12.6316H175.33C175.633 12.6316 175.879 12.8751 175.879 13.1754V17.5263C175.879 17.8267 175.633 18.0702 175.33 18.0702H174.78C174.477 18.0702 174.231 17.8267 174.231 17.5263V13.1754Z" fill="#131523"/>
<path d="M176.977 12.0877C176.977 11.7873 177.223 11.5439 177.526 11.5439H178.075C178.378 11.5439 178.624 11.7873 178.624 12.0877V17.5263C178.624 17.8267 178.378 18.0702 178.075 18.0702H177.526C177.223 18.0702 176.977 17.8267 176.977 17.5263V12.0877Z" fill="#131523"/>
<path d="M171.486 15.0789C171.486 14.7786 171.732 14.5351 172.035 14.5351H172.584C172.887 14.5351 173.133 14.7786 173.133 15.0789V17.5263C173.133 17.8267 172.887 18.0702 172.584 18.0702H172.035C171.732 18.0702 171.486 17.8267 171.486 17.5263V15.0789Z" fill="#131523"/>
<path d="M168.741 16.4386C168.741 16.1382 168.987 15.8947 169.29 15.8947H169.839C170.142 15.8947 170.388 16.1382 170.388 16.4386V17.5263C170.388 17.8267 170.142 18.0702 169.839 18.0702H169.29C168.987 18.0702 168.741 17.8267 168.741 17.5263V16.4386Z" fill="#131523"/>
</svg>

<svg xmlns="http://www.w3.org/2000/svg" fill="none" viewBox="0 0 224 30"><path fill="#131523" d="M14.577 18.137c1.433 0 2.285-1.121 2.285-3.02 0-.715-.137-1.316-.398-1.781-.38-.723-1.032-1.113-1.856-1.113-1.226 0-2.094.824-2.094 1.98 0 1.086.782 1.875 1.856 1.875.66 0 1.195-.308 1.46-.844h.067c0 1.29-.488 2.059-1.312 2.059-.485 0-.86-.266-.989-.691h-1.004c.168.925.954 1.535 1.985 1.535zm.035-2.86c-.648 0-1.11-.46-1.11-1.105 0-.629.485-1.11 1.114-1.11a1.1 1.1 0 0 1 1.113 1.126c0 .628-.472 1.09-1.117 1.09zm3.612 2.125a.6.6 0 0 0 .625-.617c0-.355-.254-.617-.625-.617a.6.6 0 0 0-.625.617c0 .352.257.617.625.617zm0-2.93c.37 0 .625-.261.625-.613 0-.355-.254-.617-.625-.617a.6.6 0 0 0-.625.617c0 .352.257.614.625.614zM22.335 18h.965v-1.05h.762v-.852H23.3v-3.735h-1.422c-.996 1.5-1.789 2.754-2.297 3.688v.898h2.754V18zm-1.82-1.938a42.411 42.411 0 0 1 1.781-2.878h.055v2.937h-1.836v-.058zM25.962 18h1.008v-5.637h-1.004l-1.473 1.032v.968l1.403-.984h.066V18z"/><path fill="#131523" stroke="#131420" stroke-width=".5" d="M198.194 11.25h9.726c.967 0 1.75.784 1.75 1.75v3.07a1.75 1.75 0 0 1-1.75 1.75h-9.726a1.75 1.75 0 0 1-1.75-1.75V13c0-.966.783-1.75 1.75-1.75z" opacity=".35"/><path fill="#131523" d="M210.47 13.72v2.295c.466-.195.769-.647.769-1.148 0-.501-.303-.953-.769-1.148" opacity=".4"/><path fill="#131523" d="M197.292 13.088a1 1 0 0 1 1-1h9.53a1 1 0 0 1 1 1v2.894a1 1 0 0 1-1 1h-9.53a1 1 0 0 1-1-1v-2.894z"/><path fill="#131523" fill-rule="evenodd" d="M187.684 12.951c1.354 0 2.657.526 3.638 1.47a.187.187 0 0 0 .265-.002l.707-.721a.205.205 0 0 0 .057-.141.205.205 0 0 0-.059-.141 6.608 6.608 0 0 0-9.217 0 .199.199 0 0 0-.058.14.197.197 0 0 0 .057.142l.706.72a.187.187 0 0 0 .265.003 5.25 5.25 0 0 1 3.639-1.47zm.019 2.222c.744 0 1.462.28 2.014.784.074.072.192.07.264-.003l.706-.721a.199.199 0 0 0 .057-.143.198.198 0 0 0-.06-.14 4.34 4.34 0 0 0-5.96 0 .198.198 0 0 0-.06.14.198.198 0 0 0 .057.143l.706.72c.072.074.19.076.265.004a2.98 2.98 0 0 1 2.011-.784zm1.435 1.452a.19.19 0 0 1-.057.142l-1.221 1.246a.189.189 0 0 1-.271 0l-1.221-1.246a.195.195 0 0 1 .006-.282 2.074 2.074 0 0 1 2.701 0c.04.036.062.087.063.14z" clip-rule="evenodd"/><path fill="#131523" d="M174.231 13.175c0-.3.246-.543.549-.543h.55c.303 0 .549.243.549.543v4.351c0 .3-.246.544-.549.544h-.55a.547.547 0 0 1-.549-.544v-4.35zM176.977 12.088c0-.3.246-.544.549-.544h.549c.303 0 .549.243.549.544v5.438c0 .3-.246.544-.549.544h-.549a.547.547 0 0 1-.549-.544v-5.438zM171.486 15.079c0-.3.246-.544.549-.544h.549c.303 0 .549.244.549.544v2.447c0 .3-.246.544-.549.544h-.549a.547.547 0 0 1-.549-.544V15.08zM168.741 16.439c0-.3.246-.544.549-.544h.549c.303 0 .549.243.549.544v1.087c0 .3-.246.544-.549.544h-.549a.547.547 0 0 1-.549-.544V16.44z"/></svg>
